archdroid-icon-theme/Archdroid-DeepOrangeDark/mimetypes/scalable/x-office-presentation-template.svg

<svg xmlns="http://www.w3.org/2000/svg" fill="#BF360C" viewBox="0 0 48 48"><path d="m4 4c-2.21 0-3.98 1.79-3.98 4l-.02 32c0 2.21 1.77 4 3.98 4h18.02v-9h-17.666l5.832-7.5 4.168 5.01 5.832-7.508 1.834 2.445v-9.445h-4v-11l4 4v-5l-2-2h-16m24-2c-2.21 0-4 1.79-4 4v36c0 2.21 1.79 4 4 4h16c2.21 0 4-1.79 4-4v-36c0-2.21-1.79-4-4-4h-16m0 4h16v36h-16v-4h8v-4h-8v-4h8v-4h-8v-4h8v-4h-8v-4h8v-4h-8v-4z" fill="#dd5900"/></svg>

<?xml version="1.0" encoding="UTF-8" standalone="no"?>
<svg
   xmlns:dc="http://purl.org/dc/elements/1.1/"
   xmlns:cc="http://creativecommons.org/ns#"
   xmlns:rdf="http://www.w3.org/1999/02/22-rdf-syntax-ns#"
   xmlns:svg="http://www.w3.org/2000/svg"
   xmlns="http://www.w3.org/2000/svg"
   xmlns:sodipodi="http://sodipodi.sourceforge.net/DTD/sodipodi-0.dtd"
   xmlns:inkscape="http://www.inkscape.org/namespaces/inkscape"
   fill="#4CAF50"
   width="48"
   height="48"
   viewBox="0 0 48 48"
   id="svg2"
   version="1.1"
   inkscape:version="0.91 r13725"
   sodipodi:docname="x-office-presentation-template.svg">
  <metadata
     id="metadata10">
    <rdf:RDF>
      <cc:Work
         rdf:about="">
        <dc:format>image/svg+xml</dc:format>
        <dc:type
           rdf:resource="http://purl.org/dc/dcmitype/StillImage" />
        <dc:title />
      </cc:Work>
    </rdf:RDF>
  </metadata>
  <defs
     id="defs8" />
  <sodipodi:namedview
     pagecolor="#ffffff"
     bordercolor="#666666"
     borderopacity="1"
     objecttolerance="10"
     gridtolerance="10"
     guidetolerance="10"
     inkscape:pageopacity="0"
     inkscape:pageshadow="2"
     inkscape:window-width="1366"
     inkscape:window-height="713"
     id="namedview6"
     showgrid="false"
     inkscape:zoom="8.739158736674277"
     inkscape:cx="45.13181701383986"
     inkscape:cy="15.26525849965413"
     inkscape:window-x="0"
     inkscape:window-y="30"
     inkscape:window-maximized="1"
     inkscape:current-layer="svg2"
     inkscape:snap-bbox="true"
     inkscape:bbox-paths="true"
     inkscape:bbox-nodes="true"
     inkscape:snap-bbox-edge-midpoints="false"
     inkscape:snap-bbox-midpoints="true"
     inkscape:snap-object-midpoints="true"
     inkscape:snap-page="true" />
  <path
     id="path4135"
     style="fill:#dd5900;fill-opacity:1"
     d="M 4,4 C 1.79,4 0.01953125,5.79 0.01953125,8 L 0,40 c 0,2.21 1.770468550000002,4 3.98046875,4 L 22,44 l 0,-9 -17.666015625,0 5.83203125,-7.5 4.16796875,5.0078125 L 20.166015625,25 22,27.4453125 22,18 18,18 18,7 22,11 22,6 20,4 4,4 Z M 28,2 c -2.21,0 -4,1.789999999999999 -4,4 l 0,36 c 0,2.21 1.79,4 4,4 l 16,0 c 2.21,0 4,-1.79 4,-4 L 48,6 C 48,3.789999999999999 46.21,2 44,2 L 28,2 Z m 0,4 16,0 0,36 -16,0 0,-4 8,0 0,-4 -8,0 0,-4 8,0 0,-4 -8,0 0,-4 8,0 0,-4 -8,0 0,-4 8,0 0,-4 -8,0 0,-4 z" />
</svg>
